X: 11425
T: Easter Snow
R: slip jig
M: 9/8
K: Gmajor
|:"G"gf "C"e2 "G"de/f/|"G"g3"Em" (3e/d/B/ "G"d>e|"C"G4 GA/B/|
"Am"cB/A/ "Em"B (3A/B/c/ "G"dB/G/|"D"A>B "C"G2 G2|1 "G"G6:|2 "G"G4 de/f/||
"Em"g>a b>a g2|g>a ba g>e|"G"g6|
"Em"g>a ba g>e|"G"g3 (3e/d/B/ d>e|"C"G6|
"G"g>f "C"e2 "G"d>e/f/|"G"g3 "Em"(3e/d/B/ "G"d>e|"C"G4 GA/B/|
"Am"cB/A/ "Em"B (3A/B/c/ "G"dB/G/|"D"A>B "C"G2 G2|"G"G4||

